X:158
T:Jackson's No. 2
Z: id:dc-reel-145
M:C
L:1/8
K:D Major
B|A3B AFDF|A2FD GECE|A3d BdAG|FDD2 EFGE|!
A3B AFDF|A2FD GECE|A3d BdAG|FDD2 EFG|]!
E|FDD2 FDGE|FDD2 GECE|FDD2 FDGF|EDCD EFG:|!
A|dff2 dffe|dcdB ADFA|cee2 fecA|BAGB ADFA|!
dff2 dffe|dcdB ADFA|cee2 faec|dfec d3|]!